src/images/sprites/svg/icon-adv-2.svg

<svg width="73" height="80" viewBox="0 0 73 80" fill="none" xmlns="http://www.w3.org/2000/svg">
<path d="M21.7827 50.6579C20.8636 53.8158 19.8132 56.8421 19.0254 59.8685C18.3689 62.2369 17.4498 64.3421 16.1368 66.3158C13.7734 70 11.6726 73.6842 9.30916 77.3685C7.20835 80.6579 3.13803 80.7895 1.03722 77.6316C-0.407082 75.6579 -0.0131807 73.6842 1.03722 71.7106C2.35023 69.3421 3.66323 66.9737 5.23884 64.7369C8.25875 60.1316 9.96566 55.1316 11.2787 49.7369C12.5917 43.4211 14.4299 37.1053 16.0055 30.7895C16.0055 30.3948 16.1368 30.1316 16.1368 29.7369C14.4299 30.1316 13.2482 30.7895 12.723 32.5C11.6726 35.5263 10.4909 38.4211 9.30916 41.4474C8.39005 43.8158 6.42055 44.6053 4.05714 43.6842C2.21893 43.0263 1.43113 40.9211 2.35023 38.5527C3.92584 34.8684 5.50144 31.0527 6.94575 27.2369C7.73355 25.2632 8.91526 23.6842 10.7535 22.5C13.6421 20.5263 16.5307 18.4211 19.6819 16.579C23.0957 14.6053 26.6408 14.8684 30.0546 16.4474C31.3676 17.1053 32.418 18.5526 33.0746 19.7369C35.0441 23.4211 36.751 27.2369 38.5892 30.7895C38.9831 31.4474 39.5083 32.1053 40.1648 32.5C42.3969 34.079 44.7603 35.5263 47.1237 37.1053C48.4367 37.8948 49.0932 39.079 48.9619 40.6579C48.6993 43.0263 46.7298 44.3421 44.4977 43.5527C43.9725 43.4211 43.4473 43.1579 43.0534 42.8948C41.8717 42.1053 40.8213 41.3158 39.6396 40.6579C36.2258 38.8158 33.2059 36.4474 31.105 33.1579C30.9737 32.8948 30.7111 32.7632 30.3172 32.2369C29.9233 34.079 29.792 35.7895 29.2668 37.2369C28.0851 40.6579 28.8729 43.4211 31.4989 46.0527C33.9937 48.8158 36.2258 52.1053 38.4579 55.2632C39.2457 56.3158 39.7709 57.7632 40.0335 59.079C40.9526 64.2106 41.6091 69.3421 42.3969 74.4737C42.9221 77.6316 41.6091 79.4737 38.3266 80C35.7006 80.3948 33.4685 78.8158 33.0746 76.0527C32.5494 72.8948 32.0241 69.8685 31.4989 66.8421C31.105 65.1316 30.8424 63.4211 30.5798 61.7106C30.4485 60.3948 29.9233 59.3421 29.0042 58.4211C26.6408 55.9211 24.2774 53.4211 21.7827 50.6579Z" fill="white"/>
<path d="M35.0439 7.5C35.0439 11.5789 31.7614 14.8684 27.6911 14.8684C23.4895 14.8684 20.207 11.4474 20.3383 7.23684C20.3383 3.15789 23.7521 0 27.8224 0C31.8927 0 35.1752 3.42105 35.0439 7.5Z" fill="white"/>
<path d="M58.4157 76.3158C58.6783 76.0526 59.0722 75.5263 59.0722 74.6053C59.0722 73.8158 58.8096 73.2895 58.4157 72.8947C57.8905 72.3684 57.3653 72.2368 56.7088 72.2368C56.0522 72.2368 55.527 72.5 55.1331 72.8947C54.6079 73.421 54.3453 73.9474 54.3453 74.6053C54.3453 75.2631 54.6079 75.921 55.1331 76.3158C55.3957 76.7105 55.9209 76.9737 56.7088 76.9737C57.4966 76.9737 58.1531 76.7105 58.4157 76.3158ZM59.2035 66.5789L56.1835 70.5263C56.5775 70.3947 56.9714 70.2631 57.6279 70.2631C58.547 70.2631 59.5974 70.6579 60.3852 71.3158C61.0417 71.9737 61.5669 73.0263 61.5669 74.4737C61.5669 75.5263 61.3043 76.5789 60.3852 77.5C59.3348 78.6842 58.1531 78.9474 56.8401 78.9474C55.3957 78.9474 54.214 78.6842 53.1636 77.6316C52.5071 76.9737 51.9819 75.921 51.9819 74.6053C51.9819 73.0263 52.6384 71.7105 53.5575 70.5263L57.234 65.5263L59.2035 66.5789Z" fill="white"/>
<path d="M65.3746 72.2368C65.3746 75.6579 66.6876 76.8421 67.8693 76.8421C68.9197 76.8421 70.2327 75.6579 70.2327 72.2368C70.2327 68.9474 68.9197 67.7632 67.8693 67.7632C66.6876 67.7632 65.3746 68.9474 65.3746 72.2368ZM62.8799 72.2368C62.8799 67.8947 65.2433 65.6579 67.8693 65.6579C70.364 65.6579 72.7274 67.8947 72.7274 72.2368C72.7274 76.7105 70.364 78.9474 67.8693 78.9474C65.2433 78.9474 62.8799 76.7105 62.8799 72.2368Z" fill="white"/>
</svg>

<svg xmlns="http://www.w3.org/2000/svg" width="73" height="80" fill="none" viewBox="0 0 73 80">
	<path fill="#fff" d="M21.783 50.658c-.92 3.158-1.97 6.184-2.758 9.21-.656 2.369-1.575 4.474-2.888 6.448-2.364 3.684-4.464 7.368-6.828 11.052-2.1 3.29-6.171 3.422-8.272.264-1.444-1.974-1.05-3.948 0-5.921 1.313-2.369 2.626-4.737 4.202-6.974 3.02-4.605 4.727-9.605 6.04-15 1.313-6.316 3.15-12.632 4.727-18.948 0-.394.13-.657.13-1.052-1.706.395-2.888 1.053-3.413 2.763-1.05 3.026-2.232 5.921-3.414 8.947-.919 2.369-2.888 3.158-5.252 2.237-1.838-.658-2.626-2.763-1.707-5.131 1.576-3.685 3.151-7.5 4.596-11.316.788-1.974 1.97-3.553 3.808-4.737 2.888-1.974 5.777-4.079 8.928-5.921 3.414-1.974 6.959-1.71 10.373-.132 1.313.658 2.363 2.106 3.02 3.29 1.97 3.684 3.676 7.5 5.514 11.053.394.657.92 1.315 1.576 1.71 2.232 1.579 4.595 3.026 6.959 4.605 1.313.79 1.97 1.974 1.838 3.553-.263 2.368-2.232 3.684-4.464 2.895a4.85 4.85 0 0 1-1.445-.658c-1.181-.79-2.232-1.58-3.413-2.237-3.414-1.842-6.434-4.21-8.535-7.5-.131-.263-.394-.395-.788-.921-.394 1.842-.525 3.552-1.05 5-1.182 3.42-.394 6.184 2.232 8.816 2.495 2.763 4.727 6.052 6.959 9.21.788 1.053 1.313 2.5 1.575 3.816.92 5.132 1.576 10.263 2.364 15.395.525 3.158-.788 5-4.07 5.526-2.626.395-4.858-1.184-5.252-3.947-.526-3.158-1.05-6.184-1.576-9.21-.394-1.711-.657-3.422-.92-5.132-.13-1.316-.656-2.369-1.575-3.29-2.363-2.5-4.727-5-7.221-7.763zM35.044 7.5a7.349 7.349 0 0 1-7.353 7.368c-4.201 0-7.484-3.42-7.353-7.631 0-4.08 3.414-7.237 7.484-7.237s7.353 3.421 7.222 7.5zM58.416 76.316c.262-.263.656-.79.656-1.71 0-.79-.262-1.316-.656-1.711-.525-.527-1.05-.658-1.707-.658s-1.182.263-1.576.658c-.525.526-.788 1.052-.788 1.71 0 .658.263 1.316.788 1.71.263.395.788.659 1.576.659s1.444-.264 1.707-.658zm.788-9.737-3.02 3.947c.394-.131.787-.263 1.444-.263.919 0 1.97.395 2.757 1.053.657.658 1.182 1.71 1.182 3.158 0 1.052-.263 2.105-1.182 3.026-1.05 1.184-2.232 1.447-3.545 1.447-1.444 0-2.626-.263-3.676-1.315-.657-.658-1.182-1.711-1.182-3.027 0-1.579.656-2.895 1.575-4.079l3.677-5 1.97 1.053zM65.375 72.237c0 3.42 1.313 4.605 2.494 4.605 1.05 0 2.364-1.184 2.364-4.605 0-3.29-1.313-4.474-2.364-4.474-1.181 0-2.494 1.184-2.494 4.474zm-2.495 0c0-4.342 2.363-6.58 4.99-6.58 2.494 0 4.857 2.238 4.857 6.58 0 4.474-2.363 6.71-4.858 6.71-2.626 0-4.99-2.237-4.99-6.71z"/>
</svg>
